icons/fill-ele-office-doc-s-claim-order-check.svg

<svg xmlns="http://www.w3.org/2000/svg" width="32px" height="32px" viewBox="0 0 32 32" version="1.1">
    <title>fill-ele-office-doc-s-claim-order-check</title>
    <g id="fill-ele-office-doc-s-claim-order-check" stroke-width="1" fill-rule="evenodd">
        <path d="M9,4 L9,7 C9,7.55228475 9.44771525,8 10,8 L22,8 C22.5522847,8 23,7.55228475 23,7 L23,4 L27,4 C27.5522847,4 28,4.44771525 28,5 L28,29 C28,29.5522847 27.5522847,30 27,30 L5,30 C4.44771525,30 4,29.5522847 4,29 L4,5 C4,4.44771525 4.44771525,4 5,4 L9,4 Z M22.2071068,13.7928932 C21.8165825,13.4023689 21.1834175,13.4023689 20.7928932,13.7928932 L14.5,20.085 L11.2071068,16.7928932 C10.8165825,16.4023689 10.1834175,16.4023689 9.79289322,16.7928932 C9.40236893,17.1834175 9.40236893,17.8165825 9.79289322,18.2071068 L13.7928932,22.2071068 C14.1834175,22.5976311 14.8165825,22.5976311 15.2071068,22.2071068 L22.2071068,15.2071068 C22.5976311,14.8165825 22.5976311,14.1834175 22.2071068,13.7928932 Z M20,2 C20.5522847,2 21,2.44771525 21,3 L21,5 C21,5.55228475 20.5522847,6 20,6 L12,6 C11.4477153,6 11,5.55228475 11,5 L11,3 C11,2.44771525 11.4477153,2 12,2 L20,2 Z" id="&#24418;&#29366;" />
    </g>
</svg>

<svg xmlns="http://www.w3.org/2000/svg" viewBox="0 0 32 32"><path fill="currentColor" d="M9 4v3a1 1 0 0 0 1 1h12a1 1 0 0 0 1-1V4h4a1 1 0 0 1 1 1v24a1 1 0 0 1-1 1H5a1 1 0 0 1-1-1V5a1 1 0 0 1 1-1zm13.207 9.793a1 1 0 0 0-1.414 0L14.5 20.085l-3.293-3.292a1 1 0 1 0-1.414 1.414l4 4a1 1 0 0 0 1.414 0l7-7a1 1 0 0 0 0-1.414M20 2a1 1 0 0 1 1 1v2a1 1 0 0 1-1 1h-8a1 1 0 0 1-1-1V3a1 1 0 0 1 1-1z"/></svg>
